svg/vector_polyline.svg

<svg xmlns="http://www.w3.org/2000/svg" viewBox="0 0 24 24"><path d="M2 3v6h2.95l2 6H6v6h6v-4.59L17.41 11H22V5h-6v4.57L10.59 15H9.06l-2-6H8V3M4 5h2v2H4m14 0h2v2h-2M8 17h2v2H8Z"/></svg>

<?xml version="1.0" encoding="UTF-8"?><!DOCTYPE svg PUBLIC "-//W3C//DTD SVG 1.1//EN" "http://www.w3.org/Graphics/SVG/1.1/DTD/svg11.dtd"><svg xmlns="http://www.w3.org/2000/svg" xmlns:xlink="http://www.w3.org/1999/xlink" version="1.1" id="mdi-vector-polyline" width="24" height="24" viewBox="0 0 24 24"><path d="M2 3V9H4.95L6.95 15H6V21H12V16.41L17.41 11H22V5H16V9.57L10.59 15H9.06L7.06 9H8V3M4 5H6V7H4M18 7H20V9H18M8 17H10V19H8Z" /></svg>
